X: 12151
T: Ewe, The
R: polka
M: 2/4
K: Dmajor
D>E FA|GB Af|g/f/e/d/ c/B/A/G/|EA, CE|
D>E FA|GB Af|g/f/e/d/ c/d/e/g/|1 fdd2:|2 fd d>g||
|:fd ad|bd ad|cA eA|e/f/e/d/ cA|
[1fd ad|bd ad|g/f/e/d/ c/d/e/g/|fd d>g:|
[2D>E FA|GB Af|g/f/e/d/ c/d/e/g/|fdd2||

